X:1
T:Give the Boss his Due
M:4/4
L:1/4
K:C
 E3/2 F/2G/2 E3/2| C2- C3/2 G,/2| G, G,2 A,/4 C3/4| C3 D/2E/2| F3/2 F/2 F F|\
 E3/2 D/2 C E| D4-| D4| E3/2 F/2G/2 E3/2| C2- C D/2E/2| F3/2 E/2 D C|\
 G,2- G,A,/2-B,/2| C3/2 C/2 C C| C3 E| D3/2 C/2B,/2 B,3/2| C3 D/2E/2|\
 F3/2 F/2 F F| E/2 E3 F/2| G G G F| E3 E| F3/2 F/2 F F| E2 E/2 F3/2|\
 G3/2 G/2 G F| E4| E3/2 F/2 G E| C2 D/2 E3/2| F/2 E3/2 D/2 C3/2|E/2-D/2 D3/4 G,/4 A,3/2 B,/2|\
 C C C/2 C3/2| C2 E/2 D3/2| C2 B,/2 B,3/2| C4|
